X:134
T:Kishkeam Lasses, The
T:Rural Felicity
R:slide
H:See also #105, #133, #17
Z:id:hn-slide-134
M:6/8
L:1/8
K:D
dcd efd | c2E EFA | ~B3 BAG | F2D D2A |
dcd efd | c2E EFG | AGF GFE |1 FGE D2A :|2 DED D2E ||
|: F2A d2B | c2B G3 | ABA G2E | B2A F2E |
F2A d2B | c2B G2F | EFG ABc |1 d3 d2A :|2 d3 ABc ||

